X: 3288
T: BONNIE STRATHMORE
%R: jig
B: James Kerr "Merry Melodies" v.3 p.31 #288
Z: 2016 John Chambers <jc:trillian.mit.edu>
M: 6/8
L: 1/8
K: Am
g |\
ABA ABd | edB A3 | BAB GAB | dBA G3 |\
dcd efg | age a3 | gea edB | A3 A2 :|
|: ^g |\
a^ga efg | a^ge a3 | =gea g^fg | BGB G3 |\
ABA ABd | ede a3 | gea edB | A3 A2 :|

%%sep 1 1 500
%%sep 1 1 500

